svgicons/Aerosal can-WF.svg

<?xml version="1.0" encoding="UTF-8" standalone="no"?>
<svg
   height="32"
   width="32"
   viewBox="0 0 32 32"
   version="1.1"
   id="svg1"
   sodipodi:docname="Aerosal can-WF.svg"
   inkscape:version="1.4 (e7c3feb100, 2024-10-09)"
   xmlns:inkscape="http://www.inkscape.org/namespaces/inkscape"
   xmlns:sodipodi="http://sodipodi.sourceforge.net/DTD/sodipodi-0.dtd"
   xmlns="http://www.w3.org/2000/svg"
   xmlns:svg="http://www.w3.org/2000/svg">
  <defs
     id="defs1" />
  <sodipodi:namedview
     id="namedview1"
     pagecolor="#ffffff"
     bordercolor="#000000"
     borderopacity="0.25"
     inkscape:showpageshadow="2"
     inkscape:pageopacity="0.0"
     inkscape:pagecheckerboard="0"
     inkscape:deskcolor="#d1d1d1"
     inkscape:zoom="11.890625"
     inkscape:cx="39.316689"
     inkscape:cy="29.981604"
     inkscape:window-width="1920"
     inkscape:window-height="969"
     inkscape:window-x="0"
     inkscape:window-y="0"
     inkscape:window-maximized="1"
     inkscape:current-layer="svg1"
     showgrid="true">
    <inkscape:grid
       id="grid1"
       units="px"
       originx="0"
       originy="0"
       spacingx="1"
       spacingy="1"
       empcolor="#0099e5"
       empopacity="0.30196078"
       color="#0099e5"
       opacity="0.14901961"
       empspacing="5"
       enabled="true"
       visible="true" />
  </sodipodi:namedview>
  <g
     id="g1"
     transform="matrix(0.18778312,0,0,0.18778312,-9.0362453,-8.1773542)">
    <path
       id="path1"
       transform="matrix(4.3124995,0,0,4.3124995,84.874976,59)"
       fill="#ff0000"
       d="m 8.0000138,12.000005 v 18 H 18.000014 v -18 z m 2.0000002,-4 v 2 h 6 v -2 z m 2,-4.0000002 v 2.0000004 h 2 V 4.0000048 Z M 0,0 9.8493311,4.6729994 c 0.1930059,0.081 0.2030069,0.4300003 0.016,0.5310001 L 8.2279541,6.0000052 H 10.000014 V 2.0000048 h 6 v 4.0000004 h 2 v 3.9999998 h 2 v 22 H 6.0000139 v -22 H 8.0000138 V 6.1108177 L 0,9.9999996 v -2.188 L 2.0000672,6.7989993 v 0.005 L 5.7901946,4.9609995 2.209074,3.2609997 0,2.1809998 Z" />
  </g>
</svg>

<?xml version="1.0" encoding="utf-8"?>
<svg xmlns="http://www.w3.org/2000/svg" height="256" width="256" viewBox="0 0 256 256">
  <g>
    <path id="path1" transform="rotate(0,128,128) translate(84.87497635186,59) scale(4.31249948591,4.31249948591)  " fill="#FF0000" d="M8.0000138,12.000005L8.0000138,30.000005 18.000014,30.000005 18.000014,12.000005z M10.000014,8.000005L10.000014,10.000005 16.000014,10.000005 16.000014,8.000005z M12.000014,4.0000048L12.000014,6.0000052 14.000014,6.0000052 14.000014,4.0000048z M0,0L9.8493311,4.6729994C10.042337,4.7539997,10.052338,5.1029997,9.8653314,5.2039995L8.2279541,6.0000052 10.000014,6.0000052 10.000014,2.0000048 16.000014,2.0000048 16.000014,6.0000052 18.000014,6.0000052 18.000014,10.000005 20.000014,10.000005 20.000014,32.000005 6.0000139,32.000005 6.0000139,10.000005 8.0000138,10.000005 8.0000138,6.1108177 0,9.9999996 0,7.8119996 2.0000672,6.7989993 2.0000672,6.8039994 5.7901946,4.9609995 2.209074,3.2609997 0,2.1809998z" />
  </g>
</svg>
